!!!OTL: Eifersucht.
!!!OTL-incipit: IN DEN GARTEN WOLLN WIR GEHN
!!!ARE: Europa, Mitteleuropa, Deutschland, Lothringen
!!!SCT: Z1161
!!!TXL: @@DE
!!!YEM: Copyright 1995, estate of Helmut Schaffrath.
**kern	**text
*ICvox	*
*M3/8	*
*k[f#c#]	*
*D:	*
!LO:TX:a:t=Lotharingen	!
{8dL	Jn
8f#J	.
8a	den
=1	=1
8dL	Gar-
8f#J	.
8a	-ten
=2	=2
8dL	woll'n
8bJ	.
8a	wir
=3	=3
4a	ge-
8g}	-hen,
=4	=4
{4e	wo
8e	die
=5	=5
4e	ſchö-
8a	-ne
=6	=6
4a	Ro-
8g	-ſen
=7	=7
8gL	ſte-
8f#J	.
8f#}	-hen,
=8	=8
{8e	da
8e	ſtehn
8e	der
=9	=9
8gL	Ro-
8f#J	.
8e	-ſen
=10	=10
8dL	gar
8f#J	.
8a	ʒu
=11	=11
4.dd}	viel,
=12	=12
{4b	brech'
8b	mir
=13	=13
4a	ei-
8f#	-ne,
=14	=14
8aL	wo
8gJ	.
8e	ich
=15	=15
4d	will.
8r}	.
==	==
!!!AGN: Liebes - Lied
!!!ONB: ESAC (Essen Associative Code) Database: ZUCCAL
!!!AMT: simple triple
!!!AIN: vox
!!!EED: Helmut Schaffrath
!!!EEV: 1.0
!!!GTL: V. Lieder der Minne.
!!!URL-scan: https://www.digitale-sammlungen.de/de/view/bsb11160573?page=345
!!!ENC: Anna Maria Matuszewska
!!!EEV: 2025/02/05
*-	*-
